public/images/icons/preview-card.svg

<svg width="68" height="40" viewBox="0 0 68 40" fill="none" xmlns="http://www.w3.org/2000/svg">
<path d="M33.7444 28.828C38.6742 28.8314 42.6743 24.838 42.6775 19.9071C42.681 14.9772 38.6876 10.9772 33.7567 10.9738C28.8268 10.9704 24.8268 14.9637 24.8234 19.8946C24.8201 24.8245 28.8145 28.8247 33.7444 28.828ZM39.9384 19.7915C40.3681 19.8779 40.7024 20.1752 40.9009 20.5499C40.9311 20.6037 40.9479 20.6609 40.9727 20.7181C41.0062 20.8012 41.0321 20.8854 41.0523 20.9729C41.1174 21.2352 41.1465 21.5113 41.0961 21.795C40.709 23.9487 39.1689 25.7984 36.9962 26.293C36.2491 26.4637 35.5054 26.1192 35.1711 25.4451C35.0501 25.2924 34.9491 25.1131 34.8817 24.892C34.4578 23.4956 34.7865 21.8006 35.935 20.8215C37.0903 19.8375 38.4466 19.4931 39.9384 19.7915ZM26.8032 20.0002C26.8032 15.9575 29.9059 12.6676 33.7174 12.6676C34.3377 12.6676 34.839 13.1701 34.839 13.7893C34.839 14.4084 34.3377 14.9109 33.7174 14.9109C31.1419 14.9109 29.0466 17.1935 29.0466 20.0001C29.0466 20.6191 28.5453 21.1218 27.925 21.1218C27.3047 21.1218 26.8032 20.6192 26.8032 20.0002Z" fill="#292929"/>
<path d="M33.7174 40C57.7175 40 67.4358 23.0028 67.4358 20.1772C67.4358 17.013 55.2844 0 33.7174 0C11.3203 0 0 16.7695 0 20.1772C0 23.5245 11.3203 40 33.7174 40ZM33.64 4.6012C42.1448 4.60683 49.0333 11.5065 49.0276 20.0101C49.022 28.5148 42.1224 35.4034 33.6187 35.3976C25.1139 35.3921 18.2256 28.4924 18.2312 19.9889C18.2367 11.4851 25.1363 4.59569 33.64 4.6012Z" fill="#292929"/>
</svg>

<svg width="68" height="40" fill="none" xmlns="http://www.w3.org/2000/svg"><path d="M33.744 28.828a8.927 8.927 0 0 0 8.934-8.92 8.927 8.927 0 0 0-8.921-8.934 8.928 8.928 0 0 0-.012 17.854Zm6.194-9.037c.43.087.764.384.963.759.03.054.047.11.072.168.033.083.06.167.08.255.064.262.094.538.043.822-.387 2.154-1.927 4.003-4.1 4.498a1.612 1.612 0 0 1-1.825-.848 1.652 1.652 0 0 1-.29-.553c-.423-1.396-.095-3.091 1.054-4.07 1.155-.985 2.512-1.329 4.003-1.03Zm-13.135.21c0-4.044 3.103-7.333 6.914-7.333a1.121 1.121 0 1 1 0 2.243c-2.575 0-4.67 2.283-4.67 5.09a1.121 1.121 0 1 1-2.244 0Z" fill="#292929"/><path d="M33.717 40c24 0 33.719-16.997 33.719-19.823C67.436 17.013 55.284 0 33.717 0 11.32 0 0 16.77 0 20.177 0 23.525 11.32 40 33.717 40ZM33.64 4.601c8.505.006 15.393 6.906 15.388 15.41-.006 8.504-6.906 15.392-15.41 15.387-8.504-.006-15.392-6.906-15.387-15.41.006-8.503 6.905-15.392 15.409-15.387Z" fill="#292929"/></svg>
